src/actions/22/view-institution-add.svg

<svg viewBox="0 0 22 22" xmlns="http://www.w3.org/2000/svg">
  <defs id="defs3051">
    <style type="text/css" id="current-color-scheme">
      .ColorScheme-Text {
        color:#363636;
      }
      </style>
  </defs>
<path id="path846" d="m11 3-8 4.6230469v0.375 1.0019531h1v9h-1v1h10v-5h-4v4h-1v-9h6v4h1v-4h2v4h1v-4h1v-1.0019531-0.375l-8-4.6230469zm0 1.15625 6.650391 3.8417969h-13.300782l6.6503906-3.8417969zm-6 4.84375h2v9h-2v-9zm11 5v2h-2v1h2v2h1v-2h2v-1h-2v-2h-1z"
      style="fill:currentColor;fill-opacity:1;stroke:none" 
      class="ColorScheme-Text"
      />
</svg>

<svg xmlns="http://www.w3.org/2000/svg" viewBox="0 0 22 22">
    <path d="M11 3 3 7.623V9h1v9H3v1h10v-5H9v4H8V9h6v4h1V9h2v4h1V9h1V7.623L11 3zm0 1.156 6.65 3.842H4.35L11 4.156zM5 9h2v9H5V9zm11 5v2h-2v1h2v2h1v-2h2v-1h-2v-2h-1z" style="fill:currentColor;fill-opacity:1;stroke:none;color:#050505;opacity:.7"/>
</svg>
